X: 10049
T: KATHY'S JIG
C: Bob McQuillen 25 June 93
B: Bob's Note Book 10 #49
%R: jig
Z: 2020 John Chambers <jc:trillian.mit.edu>
M: 6/8
L: 1/8
K: Em
|:E3 GBG | EAG FED | E2D EGB | dBG AFD |\
| E3 GBG | EAG FGA | GBd edB |1 dBG AFD :|2 dBG ABd ||
|:e2g fed | edB ABd | e3 dBG | EGB ABd |\
| e2g fed | edB A2d | BdB ABA | GAG FED :|
%%begintext align
%% Kathy Anderson is a great
%% caller and dance teacher from Dayton, OH, and when it developed
%% that jigs were her favorite kind of music,* why then, it
%% just naturally followed that she should have one of her very
%% own - so here it is, Kathy with love from Bob--
%%endtext
%%begintext align
%% P.S. We met at Lady of the Lake - have
%% _you_ been there yet? _Gotta_ _do_ _it_!!
%%endtext
%%text *NOT!!

%%sep 1 1 500

%%sep 1 1 500

